svgs/sharp-solid/expand.svg

<svg xmlns="http://www.w3.org/2000/svg" viewBox="0 0 448 512"><!--! Font Awesome Pro 6.6.0 by @fontawesome - https://fontawesome.com License - https://fontawesome.com/license (Commercial License) Copyright 2024 Fonticons, Inc. --><path d="M32 32L0 32 0 64l0 96 0 32 64 0 0-32 0-64 64 0 32 0 0-64-32 0L32 32zM64 352l0-32L0 320l0 32 0 96 0 32 32 0 96 0 32 0 0-64-32 0-64 0 0-64zM320 32l-32 0 0 64 32 0 64 0 0 64 0 32 64 0 0-32 0-96 0-32-32 0-96 0zM448 352l0-32-64 0 0 32 0 64-64 0-32 0 0 64 32 0 96 0 32 0 0-32 0-96z"/></svg>

<svg xmlns="http://www.w3.org/2000/svg" viewBox="0 0 448 512"><!--! Font Awesome Pro 6.4.0 by @fontawesome - https://fontawesome.com License - https://fontawesome.com/license (Commercial License) Copyright 2023 Fonticons, Inc. --><path d="M32 32H0V64v96 32H64V160 96h64 32V32H128 32zM64 352V320H0v32 96 32H32h96 32V416H128 64V352zM320 32H288V96h32 64v64 32h64V160 64 32H416 320zM448 352V320H384v32 64H320 288v64h32 96 32V448 352z"/></svg>
